src/assets/outline/DocumentPrevious.svg

<svg width="24" height="24" viewBox="0 0 24 24"  xmlns="http://www.w3.org/2000/svg">
<path d="M8.99999 17.75C8.80999 17.75 8.61999 17.68 8.46999 17.53L6.46999 15.53C6.25999 15.32 6.18999 14.99 6.30999 14.71C6.42999 14.43 6.69999 14.25 6.99999 14.25H13C13.41 14.25 13.75 14.59 13.75 15C13.75 15.41 13.41 15.75 13 15.75H8.80999L9.52999 16.47C9.81999 16.76 9.81999 17.24 9.52999 17.53C9.37999 17.68 9.18999 17.75 8.99999 17.75Z" />
<path d="M6.99994 15.7504C6.80994 15.7504 6.61994 15.6804 6.46994 15.5304C6.17994 15.2404 6.17994 14.7604 6.46994 14.4704L8.46994 12.4704C8.75994 12.1804 9.23994 12.1804 9.52994 12.4704C9.81994 12.7604 9.81994 13.2404 9.52994 13.5304L7.52994 15.5304C7.37994 15.6804 7.18994 15.7504 6.99994 15.7504Z" />
<path d="M15 22.75H9C3.57 22.75 1.25 20.43 1.25 15V9C1.25 3.57 3.57 1.25 9 1.25H14C14.41 1.25 14.75 1.59 14.75 2C14.75 2.41 14.41 2.75 14 2.75H9C4.39 2.75 2.75 4.39 2.75 9V15C2.75 19.61 4.39 21.25 9 21.25H15C19.61 21.25 21.25 19.61 21.25 15V10C21.25 9.59 21.59 9.25 22 9.25C22.41 9.25 22.75 9.59 22.75 10V15C22.75 20.43 20.43 22.75 15 22.75Z" />
<path d="M22 10.7505H18C14.58 10.7505 13.25 9.42048 13.25 6.00048V2.00048C13.25 1.70048 13.43 1.42048 13.71 1.31048C13.99 1.19048 14.31 1.26048 14.53 1.47048L22.53 9.47048C22.74 9.68048 22.81 10.0105 22.69 10.2905C22.57 10.5705 22.3 10.7505 22 10.7505ZM14.75 3.81048V6.00048C14.75 8.58048 15.42 9.25048 18 9.25048H20.19L14.75 3.81048Z" />
</svg>

<?xml version="1.0" encoding="UTF-8"?>
<svg width="24" height="24" viewBox="0 0 24 24" xmlns="http://www.w3.org/2000/svg">
 <path d="m9 17.75c-0.19 0-0.38-0.07-0.53-0.22l-2-2c-0.21-0.21-0.28-0.54-0.16-0.82s0.39-0.46 0.69-0.46h6c0.41 0 0.75 0.34 0.75 0.75s-0.34 0.75-0.75 0.75h-4.19l0.72 0.72c0.29 0.29 0.29 0.77 0 1.06-0.15 0.15-0.34 0.22-0.53 0.22z"/>
 <path d="m6.9999 15.75c-0.19 0-0.38-0.07-0.53-0.22-0.29-0.29-0.29-0.77 0-1.06l2-2c0.29-0.29 0.77-0.29 1.06 0s0.29 0.77 0 1.06l-2 2c-0.15 0.15-0.34 0.22-0.53 0.22z"/>
 <path d="m15 22.75h-6c-5.43 0-7.75-2.32-7.75-7.75v-6c0-5.43 2.32-7.75 7.75-7.75h5c0.41 0 0.75 0.34 0.75 0.75s-0.34 0.75-0.75 0.75h-5c-4.61 0-6.25 1.64-6.25 6.25v6c0 4.61 1.64 6.25 6.25 6.25h6c4.61 0 6.25-1.64 6.25-6.25v-5c0-0.41 0.34-0.75 0.75-0.75s0.75 0.34 0.75 0.75v5c0 5.43-2.32 7.75-7.75 7.75z"/>
 <path d="m22 10.75h-4c-3.42 0-4.75-1.33-4.75-4.75v-4c0-0.3 0.18-0.58 0.46-0.69 0.28-0.12 0.6-0.05 0.82 0.16l8 8c0.21 0.21 0.28 0.54002 0.16 0.82002s-0.39 0.46-0.69 0.46zm-7.25-6.94v2.19c0 2.58 0.67 3.25 3.25 3.25h2.19l-5.44-5.44z"/>
</svg>
